X:93
T:Rocky Top
C:
M:4/4
L:1/8
Q:1/8=250
K:G
d2d2 d2d2|e2e2 dBG2|G2GG AGA2|B8|
d2d2 d2d2|e2e2 dBG2|G2GG AGA2|G8|
e'2e'2 e'2e'2|d'2d'2 d'4|=f'2f'2 f'2f'2|e'8|
e'4 e'4|d'bg6|ggg2 e2A2|G8|
ggg2 e2A2|G8|
